assets/Man farmer/Medium/Flat/man_farmer_flat_medium.svg

<svg width="32" height="32" viewBox="0 0 32 32" fill="none" xmlns="http://www.w3.org/2000/svg">
<path d="M20.4751 4.98999H20.48C22.96 4.98999 24.98 6.99999 24.98 9.48999C24.98 11.97 22.96 13.99 20.48 13.99H9.51001C7.03001 13.99 5.01001 11.98 5.01001 9.48999C5.01001 7.01967 7.00435 5.00576 9.48088 4.99008L10.5 4.5L10.2696 4C11.4865 2.74247 13.1764 2 14.98 2C16.7832 2 18.4736 2.7415 19.6888 4L19.5 4.5L20.4751 4.98999Z" fill="#7D4533"/>
<path d="M20.4756 4.98999C20.2436 4.63205 19.9798 4.30301 19.6899 4H10.2699C9.98257 4.30075 9.71752 4.63276 9.48376 4.99006C9.4925 4.99002 9.50123 4.98999 9.50998 4.98999H20.4756Z" fill="#533566"/>
<path d="M8 17.9947C7.99005 18.0029 7.98012 18.0111 7.97021 18.0193L7.97006 17.99C6.43116 19.2692 5.2492 20.9656 4.59182 22.9038C4.20821 24.0217 4 25.2513 4 26.5V29.97H4.03L4.03006 29.98L6 30H8L9 24L8 17.9947Z" fill="#00D26A"/>
<path d="M22 30H26V26.5C26 23.0908 24.4417 20.038 22 18.0167L21 24L22 30Z" fill="#00D26A"/>
<path d="M20 16.6977L21 20L20 23L15 24L10 23L9 20L10 16.6833C11.4974 15.9202 13.1933 15.49 14.99 15.49C16.793 15.49 18.4963 15.9258 20 16.6977Z" fill="#00D26A"/>
<path d="M10 16.6833C9.28444 17.048 8.61422 17.4887 8 17.9948V30.0001H22V18.0168C21.3857 17.5082 20.7154 17.065 20 16.6978V22.5001C20 22.7762 19.7761 23.0001 19.5 23.0001H10.5C10.2239 23.0001 10 22.7762 10 22.5001V16.6833Z" fill="#0084CE"/>
<path d="M11 27C11 26.4477 11.4477 26 12 26H18C18.5523 26 19 26.4477 19 27V30H11V27Z" fill="#46A4FB"/>
<path d="M11.87 21.53L14.99 19.34L18.11 21.53C18.48 21.79 18.99 21.53 18.99 21.07V16.24C17.75 15.76 16.4 15.49 14.99 15.49C13.58 15.49 12.23 15.76 10.99 16.24V21.08C10.99 21.52 11.5 21.79 11.87 21.53Z" fill="#008463"/>
<path d="M15.91 19.68L15.26 20.26C15.1 20.4 14.87 20.4 14.71 20.26L14.06 19.68C13.34 19.03 12.92 18.1 12.92 17.13V14.04C12.92 12.9 13.84 11.98 14.98 11.98C16.12 11.98 17.04 12.9 17.04 14.04V17.13C17.04 18.1 16.63 19.03 15.91 19.68Z" fill="white"/>
<path d="M14.9901 18.66C13.8501 18.66 12.9301 17.74 12.9301 16.6V14.04C12.9301 12.9 13.8501 11.98 14.9901 11.98C16.1301 11.98 17.0501 12.9 17.0501 14.04V16.6C17.0401 17.74 16.1201 18.66 14.9901 18.66Z" fill="#B87A66"/>
<path d="M11.76 10.5799C11.76 11.5022 11.0124 12.2499 10.09 12.2499C9.16773 12.2499 8.42004 11.5022 8.42004 10.5799C8.42004 9.6576 9.16773 8.90991 10.09 8.90991C11.0124 8.90991 11.76 9.6576 11.76 10.5799Z" fill="#BB806E"/>
<path d="M21.55 10.5799C21.55 11.5022 20.8023 12.2499 19.88 12.2499C18.9576 12.2499 18.21 11.5022 18.21 10.5799C18.21 9.6576 18.9576 8.90991 19.88 8.90991C20.8023 8.90991 21.55 9.6576 21.55 10.5799Z" fill="#BB806E"/>
<path d="M27 23C27.55 23 28 23.4103 28 23.9119V26H26V23.9119C26 23.4103 26.44 23 27 23Z" fill="#BB806E"/>
<path d="M26 21.76H25V25.76H26V21.76Z" fill="#7D4533"/>
<path d="M28.4608 10.99C28.1912 11.01 27.9914 11.24 27.9914 11.51V15.96C27.9914 16.5 27.582 16.96 27.0428 16.99C26.4736 17.02 25.9943 16.56 25.9943 15.99V11.51C25.9943 11.24 25.7946 11.01 25.525 10.99C25.2354 10.97 24.9957 11.2 24.9957 11.49V15.96C24.9957 16.5 24.5863 16.96 24.0471 16.99C23.4779 17.02 22.9986 16.56 22.9986 15.99V11.51C22.9986 11.24 22.7989 11.01 22.5292 10.99C22.2397 10.97 22 11.2 22 11.49V18.57C22 19.35 22.6291 20 23.408 20H24.7461V21.76C24.7461 21.88 24.8459 21.98 24.9658 21.98H26.0342C26.1541 21.98 26.2539 21.88 26.2539 21.76V20H27.592C28.3709 20 29 19.35 29 18.57V11.49C28.99 11.2 28.7504 10.97 28.4608 10.99Z" fill="#D3D3D3"/>
<path d="M24.2091 24.76C23.8364 24.76 23.5182 25.08 23.5091 25.48C23.5 25.75 23.6273 25.99 23.8091 26.13C23.6273 26.26 23.5 26.49 23.5 26.75C23.5 27.01 23.6182 27.24 23.8091 27.37C23.6273 27.5 23.5 27.73 23.5 27.99C23.5 28.25 23.6182 28.48 23.8091 28.61C23.6182 28.75 23.5 28.99 23.5091 29.26C23.5182 29.68 23.8364 30 24.2091 30H27.2091C27.6455 30 28 29.61 28 29.13V25.62C28 25.14 27.6455 24.75 27.2091 24.75H24.2091V24.76Z" fill="#C68D7B"/>
<path d="M9.89001 8.90005L9.97001 10.18C9.55001 10.18 9.20001 9.85005 9.17001 9.43005L9.14001 8.96005V8.91005C9.15001 7.74005 10.1 6.80005 11.27 6.80005H11.82C10.68 6.80005 9.79001 7.77005 9.89001 8.90005Z" fill="#593B39"/>
<path d="M20.2 8.90005L20.1601 10.18C20.5801 10.18 20.9301 9.85005 20.9501 9.43005L20.9801 8.96005V8.91005C20.9701 7.74005 20.0201 6.80005 18.8501 6.80005H18.3101C19.4501 6.80005 20.3 7.90006 20.2 8.90005Z" fill="#593B39"/>
<path d="M18.31 6.80005H11.81C10.67 6.80005 9.77999 7.77005 9.87999 8.90005L10.22 14C10.39 15.73 11.77 16.97 13.45 16.97H16.67C18.35 16.97 19.73 15.73 19.9 14L20.06 11.69L20.23 8.96005L20.24 8.85005C20.28 7.76005 19.41 6.80005 18.31 6.80005Z" fill="#C68D7B"/>
<path d="M15 13.6799C14.46 13.6799 13.95 13.5499 13.52 13.3199C13.37 13.2399 13.22 13.4099 13.31 13.5499C13.67 14.0999 14.29 14.4699 15 14.4699C15.71 14.4699 16.33 14.0999 16.69 13.5499C16.78 13.4099 16.62 13.2499 16.48 13.3199C16.05 13.5499 15.54 13.6799 15 13.6799Z" fill="#990838"/>
<path d="M11.18 10.2699C11.33 9.64994 11.89 9.18994 12.56 9.18994C13.25 9.18994 13.83 9.68994 13.95 10.3399C13.98 10.4899 13.87 10.6199 13.72 10.6199H11.45C11.26 10.6199 11.13 10.4499 11.18 10.2699Z" fill="white"/>
<path d="M18.82 10.2699C18.67 9.64994 18.11 9.18994 17.44 9.18994C16.74 9.18994 16.17 9.68994 16.05 10.3399C16.02 10.4899 16.13 10.6199 16.28 10.6199H18.55C18.73 10.6199 18.86 10.4499 18.82 10.2699Z" fill="white"/>
<path d="M11.86 10.38C11.86 9.87997 12.27 9.46997 12.77 9.46997C13.27 9.46997 13.68 9.87997 13.68 10.38C13.68 10.46 13.67 10.54 13.65 10.62H11.89C11.87 10.54 11.86 10.46 11.86 10.38Z" fill="#7D4533"/>
<path d="M18.1399 10.38C18.1399 9.87997 17.7299 9.46997 17.2299 9.46997C16.7199 9.46997 16.3199 9.87997 16.3199 10.38C16.3199 10.46 16.3299 10.54 16.3499 10.62H18.1099C18.1299 10.54 18.1399 10.46 18.1399 10.38Z" fill="#7D4533"/>
<path d="M12.77 9.85986C13.06 9.85986 13.29 10.0899 13.29 10.3799C13.29 10.4599 13.26 10.5499 13.23 10.6199H12.31C12.27 10.5499 12.25 10.4699 12.25 10.3799C12.25 10.0899 12.48 9.85986 12.77 9.85986Z" fill="black"/>
<path d="M17.23 9.85986C16.94 9.85986 16.71 10.0899 16.71 10.3799C16.71 10.4599 16.73 10.5499 16.77 10.6199H17.69C17.73 10.5499 17.75 10.4699 17.75 10.3799C17.75 10.0899 17.52 9.85986 17.23 9.85986Z" fill="black"/>
<path d="M14.68 10.3001L14.15 12.0101C14.04 12.3601 14.3 12.7101 14.67 12.7101H15.45C15.82 12.7101 16.08 12.3601 15.97 12.0101L15.45 10.3001C15.33 9.92014 14.8 9.92014 14.68 10.3001Z" fill="#AB6A55"/>
<path d="M11.1542 7.67643L11.1558 7.6752L11.1577 7.67377L11.1622 7.67034L11.1743 7.66129C11.1838 7.65431 11.196 7.64549 11.211 7.63513C11.2409 7.61443 11.2817 7.58748 11.3328 7.55681C11.4348 7.49562 11.5793 7.41863 11.7609 7.34691C12.124 7.20352 12.6434 7.07822 13.2657 7.15144C13.5743 7.18774 13.795 7.46728 13.7587 7.77581C13.7224 8.08434 13.4428 8.30503 13.1343 8.26873C12.7366 8.22195 12.4061 8.30165 12.1742 8.39326C12.0582 8.43905 11.969 8.48705 11.9116 8.52149C11.883 8.53863 11.8628 8.55215 11.8515 8.55997L11.8417 8.56695C11.5968 8.75422 11.2463 8.70952 11.0564 8.46588C10.8654 8.22085 10.9092 7.8674 11.1542 7.67643Z" fill="#593B39"/>
<path d="M18.8454 7.67614L18.8442 7.6752L18.8423 7.67377L18.8378 7.67034L18.8257 7.66129C18.8162 7.65431 18.804 7.64549 18.789 7.63513C18.7591 7.61443 18.7183 7.58748 18.6672 7.55681C18.5652 7.49562 18.4207 7.41863 18.2391 7.34691C17.876 7.20352 17.3565 7.07822 16.7342 7.15144C16.4257 7.18774 16.205 7.46728 16.2413 7.77581C16.2776 8.08434 16.5571 8.30503 16.8657 8.26873C17.2634 8.22195 17.5939 8.30165 17.8258 8.39326C17.9417 8.43905 18.031 8.48705 18.0884 8.52149C18.1169 8.53863 18.1372 8.55215 18.1485 8.55997L18.1583 8.56695C18.4032 8.75422 18.7537 8.70952 18.9436 8.46588C19.1346 8.22085 19.0904 7.86711 18.8454 7.67614Z" fill="#593B39"/>
<path d="M12.6099 10.0199C12.6099 10.1082 12.5383 10.1799 12.4499 10.1799C12.3616 10.1799 12.2899 10.1082 12.2899 10.0199C12.2899 9.9315 12.3616 9.85986 12.4499 9.85986C12.5383 9.85986 12.6099 9.9315 12.6099 10.0199Z" fill="white"/>
<path d="M17.1099 10.0199C17.1099 10.1082 17.0383 10.1799 16.9499 10.1799C16.8616 10.1799 16.7899 10.1082 16.7899 10.0199C16.7899 9.9315 16.8616 9.85986 16.9499 9.85986C17.0383 9.85986 17.1099 9.9315 17.1099 10.0199Z" fill="white"/>
</svg>

<svg xmlns="http://www.w3.org/2000/svg" width="32" height="32" fill="none"><path fill="#7D4533" d="M20.475 4.99h.005a4.5 4.5 0 0 1 4.5 4.5c0 2.48-2.02 4.5-4.5 4.5H9.51a4.5 4.5 0 0 1-.03-9l1.02-.49-.23-.5a6.545 6.545 0 0 1 9.42 0l-.19.5.975.49Z"/><path fill="#533566" d="M20.476 4.99A6.712 6.712 0 0 0 19.69 4h-9.42c-.287.3-.552.633-.786.99H20.476Z"/><path fill="#00D26A" d="m8 17.995-.03.024v-.029a10.983 10.983 0 0 0-3.378 4.914A11.149 11.149 0 0 0 4 26.5v3.47h.03v.01L6 30h2l1-6-1-6.005ZM22 30h4v-3.5c0-3.41-1.558-6.462-4-8.483L21 24l1 6ZM20 16.698 21 20l-1 3-5 1-5-1-1-3 1-3.317a10.958 10.958 0 0 1 4.99-1.193c1.803 0 3.506.436 5.01 1.208Z"/><path fill="#0084CE" d="M10 16.683c-.716.365-1.386.806-2 1.312V30h14V18.017a11.047 11.047 0 0 0-2-1.32V22.5a.5.5 0 0 1-.5.5h-9a.5.5 0 0 1-.5-.5v-5.817Z"/><path fill="#46A4FB" d="M11 27a1 1 0 0 1 1-1h6a1 1 0 0 1 1 1v3h-8v-3Z"/><path fill="#008463" d="m11.87 21.53 3.12-2.19 3.12 2.19c.37.26.88 0 .88-.46v-4.83c-1.24-.48-2.59-.75-4-.75-1.41 0-2.76.27-4 .75v4.84c0 .44.51.71.88.45Z"/><path fill="#fff" d="m15.91 19.68-.65.58c-.16.14-.39.14-.55 0l-.65-.58a3.449 3.449 0 0 1-1.14-2.55v-3.09c0-1.14.92-2.06 2.06-2.06 1.14 0 2.06.92 2.06 2.06v3.09c0 .97-.41 1.9-1.13 2.55Z"/><path fill="#B87A66" d="M14.99 18.66c-1.14 0-2.06-.92-2.06-2.06v-2.56c0-1.14.92-2.06 2.06-2.06 1.14 0 2.06.92 2.06 2.06v2.56a2.07 2.07 0 0 1-2.06 2.06Z"/><path fill="#BB806E" d="M11.76 10.58a1.67 1.67 0 1 1-3.34 0 1.67 1.67 0 0 1 3.34 0ZM21.55 10.58a1.67 1.67 0 1 1-3.34 0 1.67 1.67 0 0 1 3.34 0ZM27 23c.55 0 1 .41 1 .912V26h-2v-2.088c0-.502.44-.912 1-.912Z"/><path fill="#7D4533" d="M26 21.76h-1v4h1v-4Z"/><path fill="#D3D3D3" d="M28.46 10.99c-.269.02-.469.25-.469.52v4.45c0 .54-.409 1-.948 1.03-.57.03-1.049-.43-1.049-1v-4.48c0-.27-.2-.5-.469-.52a.496.496 0 0 0-.53.5v4.47c0 .54-.409 1-.948 1.03-.57.03-1.048-.43-1.048-1v-4.48c0-.27-.2-.5-.47-.52a.496.496 0 0 0-.529.5v7.08c0 .78.63 1.43 1.408 1.43h1.338v1.76c0 .12.1.22.22.22h1.068c.12 0 .22-.1.22-.22V20h1.338c.779 0 1.408-.65 1.408-1.43v-7.08a.51.51 0 0 0-.54-.5Z"/><path fill="#C68D7B" d="M24.21 24.76c-.374 0-.692.32-.7.72-.01.27.117.51.3.65a.765.765 0 0 0-.31.62c0 .26.118.49.31.62a.765.765 0 0 0-.31.62c0 .26.118.49.31.62-.192.14-.31.38-.3.65.008.42.326.74.7.74h3c.435 0 .79-.39.79-.87v-3.51c0-.48-.355-.87-.79-.87h-3v.01Z"/><path fill="#593B39" d="m9.89 8.9.08 1.28c-.42 0-.77-.33-.8-.75l-.03-.47v-.05c.01-1.17.96-2.11 2.13-2.11h.55c-1.14 0-2.03.97-1.93 2.1ZM20.2 8.9l-.04 1.28c.42 0 .77-.33.79-.75l.03-.47v-.05a2.128 2.128 0 0 0-2.13-2.11h-.54c1.14 0 1.99 1.1 1.89 2.1Z"/><path fill="#C68D7B" d="M18.31 6.8h-6.5c-1.14 0-2.03.97-1.93 2.1l.34 5.1c.17 1.73 1.55 2.97 3.23 2.97h3.22c1.68 0 3.06-1.24 3.23-2.97l.16-2.31.17-2.73.01-.11c.04-1.09-.83-2.05-1.93-2.05Z"/><path fill="#990838" d="M15 13.68c-.54 0-1.05-.13-1.48-.36-.15-.08-.3.09-.21.23.36.55.98.92 1.69.92s1.33-.37 1.69-.92c.09-.14-.07-.3-.21-.23-.43.23-.94.36-1.48.36Z"/><path fill="#fff" d="M11.18 10.27a1.417 1.417 0 0 1 2.77.07.23.23 0 0 1-.23.28h-2.27c-.19 0-.32-.17-.27-.35ZM18.82 10.27c-.15-.62-.71-1.08-1.38-1.08-.7 0-1.27.5-1.39 1.15-.03.15.08.28.23.28h2.27c.18 0 .31-.17.27-.35Z"/><path fill="#7D4533" d="M11.86 10.38c0-.5.41-.91.91-.91a.913.913 0 0 1 .88 1.15h-1.76a.986.986 0 0 1-.03-.24ZM18.14 10.38c0-.5-.41-.91-.91-.91-.51 0-.91.41-.91.91 0 .08.01.16.03.24h1.76c.02-.08.03-.16.03-.24Z"/><path fill="#000" d="M12.77 9.86c.29 0 .52.23.52.52 0 .08-.03.17-.06.24h-.92a.516.516 0 0 1 .46-.76ZM17.23 9.86a.516.516 0 0 0-.46.76h.92a.516.516 0 0 0-.46-.76Z"/><path fill="#AB6A55" d="m14.68 10.3-.53 1.71c-.11.35.15.7.52.7h.78c.37 0 .63-.35.52-.7l-.52-1.71a.403.403 0 0 0-.77 0Z"/><path fill="#593B39" d="M11.154 7.676h.002l.002-.002.004-.004.012-.009a1.521 1.521 0 0 1 .159-.104 3.1 3.1 0 0 1 1.933-.405.563.563 0 1 1-.132 1.117 1.975 1.975 0 0 0-1.222.252 1.1 1.1 0 0 0-.06.039l-.01.007a.563.563 0 0 1-.688-.89ZM18.845 7.676l-.003-.002-.004-.004-.012-.009a1.521 1.521 0 0 0-.159-.104 3.101 3.101 0 0 0-1.933-.405.563.563 0 0 0 .132 1.117 1.975 1.975 0 0 1 1.222.252c.029.018.05.031.06.039l.01.007a.563.563 0 0 0 .687-.89Z"/><path fill="#fff" d="M12.61 10.02a.16.16 0 1 1-.32 0 .16.16 0 0 1 .32 0ZM17.11 10.02a.16.16 0 1 1-.32 0 .16.16 0 0 1 .32 0Z"/></svg>
